icon-themes/elementary_svg/cmd/sc_normalmultipanegui.svg

<svg height="16" width="16" xmlns="http://www.w3.org/2000/svg" xmlns:xlink="http://www.w3.org/1999/xlink"><linearGradient id="a" gradientTransform="matrix(.2538 0 0 .30502 19.13 -.685)" gradientUnits="userSpaceOnUse" x1="-20.21" x2="-59.613" y1="28.475" y2="28.475"><stop offset="0" stop-opacity=".34"/><stop offset="1" stop-opacity=".247"/></linearGradient><linearGradient id="b" gradientTransform="matrix(.24324 0 0 .35135 2.162 -.432)" gradientUnits="userSpaceOnUse" x1="7.556" x2="40.444" y1="24" y2="24"><stop offset="0" stop-color="#fff"/><stop offset=".25" stop-color="#fff" stop-opacity=".235"/><stop offset="1" stop-color="#fff" stop-opacity=".157"/><stop offset="1" stop-color="#fff" stop-opacity=".392"/></linearGradient><linearGradient id="c" gradientTransform="matrix(.2857 0 0 .3042 1.143 .233)" gradientUnits="userSpaceOnUse" x1="10" x2="45" y1="22.247" y2="22.247"><stop offset="0" stop-color="#f4f4f4"/><stop offset="1" stop-color="#dbdbdb"/></linearGradient><path d="m3 1h10v14h-10z" fill="url(#c)" transform="matrix(0 1 -1 0 16 0)"/><path d="m12.5 14.5h-9v-13h9z" fill="none" stroke="url(#b)" stroke-linecap="round" transform="matrix(0 1 -1 0 16 0)"/><path d="m2.5.5h11v15h-11z" fill="none" stroke="url(#a)" stroke-linejoin="round" transform="matrix(0 1 -1 0 16 0)"/><path d="m4 10h2v1h-2zm3 0h1v1h-1zm2 0h3v1h-3zm-5-2h1v1h-1zm2 0h4v1h-4zm5 0h1v1h-1zm-1-2h2v1h-2zm-6 0h2v1h-2zm3 0h2v1h-2z" fill-opacity=".337"/></svg>

<svg xmlns="http://www.w3.org/2000/svg" xmlns:xlink="http://www.w3.org/1999/xlink" height="16" width="16"><defs><linearGradient gradientTransform="matrix(.2538 0 0 .30502 19.13 -.685)" gradientUnits="userSpaceOnUse" xlink:href="#a" id="g" y2="28.475" x2="-59.613" y1="28.475" x1="-20.21"/><linearGradient id="a"><stop offset="0" stop-opacity=".34"/><stop offset="1" stop-opacity=".247"/></linearGradient><linearGradient gradientTransform="matrix(.24324 0 0 .35135 2.162 -.432)" gradientUnits="userSpaceOnUse" xlink:href="#b" id="f" y2="24" x2="40.444" y1="24" x1="7.556"/><linearGradient id="b"><stop offset="0" stop-color="#fff"/><stop offset=".25" stop-color="#fff" stop-opacity=".235"/><stop offset="1" stop-color="#fff" stop-opacity=".157"/><stop offset="1" stop-color="#fff" stop-opacity=".392"/></linearGradient><linearGradient id="c"><stop offset="0" stop-color="#f4f4f4"/><stop offset="1" stop-color="#dbdbdb"/></linearGradient><linearGradient gradientTransform="matrix(.2857 0 0 .3042 1.143 .233)" gradientUnits="userSpaceOnUse" xlink:href="#c" id="e" y2="22.247" x2="45" y1="22.247" x1="10"/><linearGradient id="d"><stop offset="0" stop-color="#cdf87e"/><stop offset=".262" stop-color="#a2e34f"/><stop offset=".661" stop-color="#68b723"/><stop offset="1" stop-color="#1d7e0d"/></linearGradient></defs><path d="M3 1h10v14H3V1z" fill="url(#e)" transform="rotate(90 8 8)"/><path d="M12.5 14.5h-9v-13h9z" fill="none" stroke="url(#f)" stroke-linecap="round" transform="rotate(90 8 8)"/><path d="M2.5.5h11v15h-11V.5z" fill="none" stroke="url(#g)" stroke-linejoin="round" transform="rotate(90 8 8)"/><g fill-opacity=".337"><path d="M4 10h2v1H4zM7 10h1v1H7zM9 10h3v1H9zM4 8h1v1H4zM6 8h4v1H6zM11 8h1v1h-1zM10 6h2v1h-2zM4 6h2v1H4zM7 6h2v1H7z"/></g></svg>
